# Robotics

MODULE first
! ================INFOS================
! first
! by Dhaval Chheda
! 04/27/2015
! Generated with HAL 0053
! c Thibault Schwartz 2011-2014
! c HAL Robotics ltd 2015
! http://www.hal-robotics.com
! =====================================


! =============DECLARATIONS============
 PERS tooldata robodraw:=[TRUE,[[0,0,175.5806],[1,0,0,0]],[1,[0,0,85.781],[1,0,0,0],0,0,0]];
 CONST robtarget Path_100:=[[1018.91,227.38,245.28],[0,0,1,0],[0,0,0,0],[0,9E9,9E9,9E9,9E9,9E9]];
 CONST robtarget Path_101:=[[1075.39,227.38,245.28],[0,0,1,0],[0,0,0,0],[0,9E9,9E9,9E9,9E9,9E9]];
 CONST robtarget Path_102:=[[1108.63,212.07,245.28],[0,0,1,0],[0,0,0,0],[0,9E9,9E9,9E9,9E9,9E9]];
 CONST robtarget Path_103:=[[1086.35,160.17,245.28],[0,0,1,0],[0,0,0,0],[0,9E9,9E9,9E9,9E9,9E9]];
 CONST robtarget Path_104:=[[1064.07,108.27,245.28],[0,0,1,0],[0,0,0,0],[0,9E9,9E9,9E9,9E9,9E9]];
 CONST robtarget Path_105:=[[1041.78,56.37,245.28],[0,0,1,0],[0,0,0,0],[0,9E9,9E9,9E9,9E9,9E9]];
 CONST robtarget Path_106:=[[1019.5,4.47,245.28],[0,0,1,0],[0,0,0,0],[0,9E9,9E9,9E9,9E9,9E9]];
 CONST robtarget Path_107:=[[1035.9,55.38,245.28],[0,0,1,0],[0,0,0,0],[0,9E9,9E9,9E9,9E9,9E9]];
 CONST robtarget Path_108:=[[1053.35,109.09,245.28],[0,0,1,0],[0,0,0,0],[0,9E9,9E9,9E9,9E9,9E9]];
 CONST robtarget Path_109:=[[1070.8,162.81,245.28],[0,0,1,0],[0,0,0,0],[0,9E9,9E9,9E9,9E9,9E9]];
 CONST robtarget Path_1010:=[[1088.34,216.36,245.28],[0,0,1,0],[0,0,0,0],[0,9E9,9E9,9E9,9E9,9E9]];
 CONST robtarget Path_1011:=[[1142.06,198.91,245.28],[0,0,1,0],[0,0,0,0],[0,9E9,9E9,9E9,9E9,9E9]];
 CONST robtarget Path_1012:=[[1168.73,174.01,245.28],[0,0,1,0],[0,0,0,0],[0,9E9,9E9,9E9,9E9,9E9]];
 CONST robtarget Path_1013:=[[1131.5,131.54,245.28],[0,0,1,0],[0,0,0,0],[0,9E9,9E9,9E9,9E9,9E9]];
 CONST robtarget Path_1014:=[[1094.27,89.07,245.28],[0,0,1,0],[0,0,0,0],[0,9E9,9E9,9E9,9E9,9E9]];
 CONST robtarget Path_1015:=[[1057.04,46.59,245.28],[0,0,1,0],[0,0,0,0],[0,9E9,9E9,9E9,9E9,9E9]];
 CONST robtarget Path_1016:=[[1019.81,4.12,245.28],[0,0,1,0],[0,0,0,0],[0,9E9,9E9,9E9,9E9,9E9]];
 CONST robtarget Path_1017:=[[1051.3,47.67,245.28],[0,0,1,0],[0,0,0,0],[0,9E9,9E9,9E9,9E9,9E9]];
 CONST robtarget Path_1018:=[[1084.5,93.37,245.28],[0,0,1,0],[0,0,0,0],[0,9E9,9E9,9E9,9E9,9E9]];
 CONST robtarget Path_1019:=[[1117.7,139.06,245.28],[0,0,1,0],[0,0,0,0],[0,9E9,9E9,9E9,9E9,9E9]];
 CONST robtarget Path_1020:=[[1150.96,184.39,245.28],[0,0,1,0],[0,0,0,0],[0,9E9,9E9,9E9,9E9,9E9]];
 CONST robtarget Path_1021:=[[1196.65,151.19,245.28],[0,0,1,0],[0,0,0,0],[0,9E9,9E9,9E9,9E9,9E9]];
 CONST robtarget Path_1022:=[[1214.1,119.28,245.28],[0,0,1,0],[0,0,0,0],[0,9E9,9E9,9E9,9E9,9E9]];
 CONST robtarget Path_1023:=[[1165.57,90.39,245.28],[0,0,1,0],[0,0,0,0],[0,9E9,9E9,9E9,9E9,9E9]];
 CONST robtarget Path_1024:=[[1117.04,61.5,245.28],[0,0,1,0],[0,0,0,0],[0,9E9,9E9,9E9,9E9,9E9]];
 CONST robtarget Path_1025:=[[1068.5,32.61,245.28],[0,0,1,0],[0,0,0,0],[0,9E9,9E9,9E9,9E9,9E9]];
 CONST robtarget Path_1026:=[[1019.97,3.72,245.28],[0,0,1,0],[0,0,0,0],[0,9E9,9E9,9E9,9E9,9E9]];
 CONST robtarget Path_1027:=[[1063.6,35.56,245.28],[0,0,1,0],[0,0,0,0],[0,9E9,9E9,9E9,9E9,9E9]];
 CONST robtarget Path_1028:=[[1109.29,68.76,245.28],[0,0,1,0],[0,0,0,0],[0,9E9,9E9,9E9,9E9,9E9]];
 CONST robtarget Path_1029:=[[1154.99,101.96,245.28],[0,0,1,0],[0,0,0,0],[0,9E9,9E9,9E9,9E9,9E9]];
 CONST robtarget Path_1030:=[[1200.59,134.6,245.28],[0,0,1,0],[0,0,0,0],[0,9E9,9E9,9E9,9E9,9E9]];
 CONST robtarget Path_1031:=[[1233.79,88.91,245.28],[0,0,1,0],[0,0,0,0],[0,9E9,9E9,9E9,9E9,9E9]];
 CONST robtarget Path_1032:=[[1240.33,53.25,245.28],[0,0,1,0],[0,0,0,0],[0,9E9,9E9,9E9,9E9,9E9]];
 CONST robtarget Path_1033:=[[1185.24,40.77,245.28],[0,0,1,0],[0,0,0,0],[0,9E9,9E9,9E9,9E9,9E9]];
 CONST robtarget Path_1034:=[[1130.16,28.29,245.28],[0,0,1,0],[0,0,0,0],[0,9E9,9E9,9E9,9E9,9E9]];
 CONST robtarget Path_1035:=[[1075.07,15.81,245.28],[0,0,1,0],[0,0,0,0],[0,9E9,9E9,9E9,9E9,9E9]];
 CONST robtarget Path_1036:=[[1019.99,3.33,245.28],[0,0,1,0],[0,0,0,0],[0,9E9,9E9,9E9,9E9,9E9]];
 CONST robtarget Path_1037:=[[1071.57,20.2,245.28],[0,0,1,0],[0,0,0,0],[0,9E9,9E9,9E9,9E9,9E9]];
 CONST robtarget Path_1038:=[[1125.29,37.65,245.28],[0,0,1,0],[0,0,0,0],[0,9E9,9E9,9E9,9E9,9E9]];
 CONST robtarget Path_1039:=[[1179.01,55.11,245.28],[0,0,1,0],[0,0,0,0],[0,9E9,9E9,9E9,9E9,9E9]];
 CONST robtarget Path_1040:=[[1232.38,71.9,245.28],[0,0,1,0],[0,0,0,0],[0,9E9,9E9,9E9,9E9,9E9]];
 CONST robtarget Path_1041:=[[1249.84,18.18,245.28],[0,0,1,0],[0,0,0,0],[0,9E9,9E9,9E9,9E9,9E9]];
 CONST robtarget Path_1042:=[[1244.86,-17.62,245.28],[0,0,1,0],[-1,0,-1,0],[0,9E9,9E9,9E9,9E9,9E9]];
 CONST robtarget Path_1043:=[[1188.61,-12.47,245.28],[0,0,1,0],[-1,0,-1,0],[0,9E9,9E9,9E9,9E9,9E9]];
 CONST robtarget Path_1044:=[[1132.37,-7.31,245.28],[0,0,1,0],[-1,0,-1,0],[0,9E9,9E9,9E9,9E9,9E9]];
 CONST robtarget Path_1045:=[[1076.12,-2.16,245.28],[0,0,1,0],[-1,0,-1,0],[0,9E9,9E9,9E9,9E9,9E9]];
 CONST robtarget Path_1046:=[[1019.88,3,245.28],[0,0,1,0],[0,0,0,0],[0,9E9,9E9,9E9,9E9,9E9]];
 CONST robtarget Path_1047:=[[1074.41,3.09,245.28],[0,0,1,0],[0,0,0,0],[0,9E9,9E9,9E9,9E9,9E9]];
 CONST robtarget Path_1048:=[[1130.89,3.09,245.28],[0,0,1,0],[0,0,0,0],[0,9E9,9E9,9E9,9E9,9E9]];
 CONST robtarget Path_1049:=[[1187.38,3.09,245.28],[0,0,1,0],[0,0,0,0],[0,9E9,9E9,9E9,9E9,9E9]];
 CONST robtarget Path_1050:=[[1243.2,2.43,245.28],[0,0,1,0],[0,0,0,0],[0,9E9,9E9,9E9,9E9,9E9]];
 CONST robtarget Path_1051:=[[1243.2,-54.05,245.28],[0,0,1,0],[-1,0,-1,0],[0,9E9,9E9,9E9,9E9,9E9]];
 CONST robtarget Path_1052:=[[1227.28,-86.38,245.28],[0,0,1,0],[-1,0,-1,0],[0,9E9,9E9,9E9,9E9,9E9]];
 CONST robtarget Path_1053:=[[1175.38,-64.09,245.28],[0,0,1,0],[-1,0,-1,0],[0,9E9,9E9,9E9,9E9,9E9]];
 CONST robtarget Path_1054:=[[1123.48,-41.81,245.28],[0,0,1,0],[-1,0,-1,0],[0,9E9,9E9,9E9,9E9,9E9]];
 CONST robtarget Path_1055:=[[1071.58,-19.53,245.28],[0,0,1,0],[-1,0,-1,0],[0,9E9,9E9,9E9,9E9,9E9]];
 CONST robtarget Path_1056:=[[1019.68,2.75,245.28],[0,0,1,0],[0,0,0,0],[0,9E9,9E9,9E9,9E9,9E9]];
 CONST robtarget Path_1057:=[[1071.82,-14.11,245.28],[0,0,1,0],[-1,0,-1,0],[0,9E9,9E9,9E9,9E9,9E9]];
 CONST robtarget Path_1058:=[[1125.54,-31.56,245.28],[0,0,1,0],[-1,0,-1,0],[0,9E9,9E9,9E9,9E9,9E9]];
 CONST robtarget Path_1059:=[[1179.26,-49.01,245.28],[0,0,1,0],[-1,0,-1,0],[0,9E9,9E9,9E9,9E9,9E9]];
 CONST robtarget Path_1060:=[[1231.98,-66.97,245.28],[0,0,1,0],[-1,0,-1,0],[0,9E9,9E9,9E9,9E9,9E9]];
 CONST robtarget Path_1061:=[[1214.52,-120.69,245.28],[0,0,1,0],[-1,0,-1,0],[0,9E9,9E9,9E9,9E9,9E9]];
 CONST robtarget Path_1062:=[[1189.34,-146.3,245.28],[0,0,1,0],[-1,0,-1,0],[0,9E9,9E9,9E9,9E9,9E9]];
 CONST robtarget Path_1063:=[[1146.86,-109.07,245.28],[0,0,1,0],[-1,0,-1,0],[0,9E9,9E9,9E9,9E9,9E9]];
 CONST robtarget Path_1064:=[[1104.39,-71.84,245.28],[0,0,1,0],[-1,0,-1,0],[0,9E9,9E9,9E9,9E9,9E9]];
 CONST robtarget Path_1065:=[[1061.92,-34.61,245.28],[0,0,1,0],[-1,0,-1,0],[0,9E9,9E9,9E9,9E9,9E9]];
 CONST robtarget Path_1066:=[[1019.44,2.62,245.28],[0,0,1,0],[0,0,0,0],[0,9E9,9E9,9E9,9E9,9E9]];
 CONST robtarget Path_1067:=[[1064.03,-29.69,245.28],[0,0,1,0],[-1,0,-1,0],[0,9E9,9E9,9E9,9E9,9E9]];
 CONST robtarget Path_1068:=[[1109.72,-62.89,245.28],[0,0,1,0],[-1,0,-1,0],[0,9E9,9E9,9E9,9E9,9E9]];
 CONST robtarget Path_1069:=[[1155.41,-96.09,245.28],[0,0,1,0],[-1,0,-1,0],[0,9E9,9E9,9E9,9E9,9E9]];
 CONST robtarget Path_1070:=[[1199.82,-129.49,245.28],[0,0,1,0],[-1,0,-1,0],[0,9E9,9E9,9E9,9E9,9E9]];
 CONST robtarget Path_1071:=[[1166.62,-175.19,245.28],[0,0,1,0],[-1,0,-1,0],[0,9E9,9E9,9E9,9E9,9E9]];
 CONST robtarget Path_1072:=[[1134.76,-191.54,245.28],[0,0,1,0],[-1,0,-1,0],[0,9E9,9E9,9E9,9E9,9E9]];
 CONST robtarget Path_1073:=[[1105.87,-143.01,245.28],[0,0,1,0],[-1,0,-1,0],[0,9E9,9E9,9E9,9E9,9E9]];
 CONST robtarget Path_1074:=[[1076.98,-94.48,245.28],[0,0,1,0],[-1,0,-1,0],[0,9E9,9E9,9E9,9E9,9E9]];
 CONST robtarget Path_1075:=[[1048.09,-45.94,245.28],[0,0,1,0],[-1,0,-1,0],[0,9E9,9E9,9E9,9E9,9E9]];
 CONST robtarget Path_1076:=[[1019.2,2.59,245.28],[0,0,1,0],[0,0,0,0],[0,9E9,9E9,9E9,9E9,9E9]];
 CONST robtarget Path_1077:=[[1051.77,-42.14,245.28],[0,0,1,0],[-1,0,-1,0],[0,9E9,9E9,9E9,9E9,9E9]];
 CONST robtarget Path_1078:=[[1084.96,-87.83,245.28],[0,0,1,0],[-1,0,-1,0],[0,9E9,9E9,9E9,9E9,9E9]];
 CONST robtarget Path_1079:=[[1118.16,-133.53,245.28],[0,0,1,0],[-1,0,-1,0],[0,9E9,9E9,9E9,9E9,9E9]];
 CONST robtarget Path_1080:=[[1149.89,-178.99,245.28],[0,0,1,0],[-1,0,-1,0],[0,9E9,9E9,9E9,9E9,9E9]];
 CONST robtarget Path_1081:=[[1104.19,-212.19,245.28],[0,0,1,0],[-1,0,-1,0],[0,9E9,9E9,9E9,9E9,9E9]];
 CONST robtarget Path_1082:=[[1068.92,-217.69,245.28],[0,0,1,0],[-1,0,-1,0],[0,9E9,9E9,9E9,9E9,9E9]];
 CONST robtarget Path_1083:=[[1056.44,-162.61,245.28],[0,0,1,0],[-1,0,-1,0],[0,9E9,9E9,9E9,9E9,9E9]];
 CONST robtarget Path_1084:=[[1043.96,-107.52,245.28],[0,0,1,0],[-1,0,-1,0],[0,9E9,9E9,9E9,9E9,9E9]];
 CONST robtarget Path_1085:=[[1031.48,-52.43,245.28],[0,0,1,0],[-1,0,-1,0],[0,9E9,9E9,9E9,9E9,9E9]];
 CONST robtarget Path_1086:=[[1019.01,2.65,245.28],[0,0,1,0],[0,0,0,0],[0,9E9,9E9,9E9,9E9,9E9]];
 CONST robtarget Path_1087:=[[1036.22,-50.2,245.28],[0,0,1,0],[-1,0,-1,0],[0,9E9,9E9,9E9,9E9,9E9]];
 CONST robtarget Path_1088:=[[1053.68,-103.92,245.28],[0,0,1,0],[-1,0,-1,0],[0,9E9,9E9,9E9,9E9,9E9]];
 CONST robtarget Path_1089:=[[1071.13,-157.64,245.28],[0,0,1,0],[-1,0,-1,0],[0,9E9,9E9,9E9,9E9,9E9]];
 CONST robtarget Path_1090:=[[1087.09,-210.59,245.28],[0,0,1,0],[-1,0,-1,0],[0,9E9,9E9,9E9,9E9,9E9]];
 CONST robtarget Path_1091:=[[1033.37,-228.05,245.28],[0,0,1,0],[-1,0,-1,0],[0,9E9,9E9,9E9,9E9,9E9]];
 CONST robtarget Path_1092:=[[998.26,-222.21,245.28],[0,0,1,0],[-1,0,-1,0],[0,9E9,9E9,9E9,9E9,9E9]];
 CONST robtarget Path_1093:=[[1003.41,-165.96,245.28],[0,0,1,0],[-1,0,-1,0],[0,9E9,9E9,9E9,9E9,9E9]];
 CONST robtarget Path_1094:=[[1008.57,-109.72,245.28],[0,0,1,0],[-1,0,-1,0],[0,9E9,9E9,9E9,9E9,9E9]];
 CONST robtarget Path_1095:=[[1013.72,-53.47,245.28],[0,0,1,0],[-1,0,-1,0],[0,9E9,9E9,9E9,9E9,9E9]];
 CONST robtarget Path_1096:=[[1018.88,2.77,245.28],[0,0,1,0],[0,0,0,0],[0,9E9,9E9,9E9,9E9,9E9]];
 CONST robtarget Path_1097:=[[1018.91,-53.08,245.28],[0,0,1,0],[-1,0,-1,0],[0,9E9,9E9,9E9,9E9,9E9]];
 CONST robtarget Path_1098:=[[1018.91,-109.56,245.28],[0,0,1,0],[-1,0,-1,0],[0,9E9,9E9,9E9,9E9,9E9]];
 CONST robtarget Path_1099:=[[1018.91,-166.04,245.28],[0,0,1,0],[-1,0,-1,0],[0,9E9,9E9,9E9,9E9,9E9]];
 CONST robtarget Path_10100:=[[1017.59,-221.2,245.28],[0,0,1,0],[-1,0,-1,0],[0,9E9,9E9,9E9,9E9,9E9]];
 CONST robtarget Path_10101:=[[961.11,-221.2,245.28],[0,0,1,0],[-1,0,-1,0],[0,9E9,9E9,9E9,9E9,9E9]];
 CONST robtarget Path_10102:=[[929.75,-207.57,245.28],[0,0,1,0],[-1,0,-1,0],[0,9E9,9E9,9E9,9E9,9E9]];
 CONST robtarget Path_10103:=[[951.76,-155.55,245.28],[0,0,1,0],[-1,0,-1,0],[0,9E9,9E9,9E9,9E9,9E9]];
 CONST robtarget Path_10104:=[[973.78,-103.54,245.28],[0,0,1,0],[-1,0,-1,0],[0,9E9,9E9,9E9,9E9,9E9]];
 CONST robtarget Path_10105:=[[995.79,-51.52,245.28],[0,0,1,0],[-1,0,-1,0],[0,9E9,9E9,9E9,9E9,9E9]];
 CONST robtarget Path_10106:=[[1017.81,0.49,245.28],[0,0,1,0],[0,0,0,0],[0,9E9,9E9,9E9,9E9,9E9]];
 CONST robtarget Path_10107:=[[1002.32,-47.95,245.28],[0,0,1,0],[-1,0,-1,0],[0,9E9,9E9,9E9,9E9,9E9]];
 CONST robtarget Path_10108:=[[984.87,-101.66,245.28],[0,0,1,0],[-1,0,-1,0],[0,9E9,9E9,9E9,9E9,9E9]];
 CONST robtarget Path_10109:=[[967.42,-155.38,245.28],[0,0,1,0],[-1,0,-1,0],[0,9E9,9E9,9E9,9E9,9E9]];
 CONST robtarget Path_10110:=[[949.96,-209.1,245.28],[0,0,1,0],[-1,0,-1,0],[0,9E9,9E9,9E9,9E9,9E9]];
 CONST robtarget Path_10111:=[[897.01,-193.14,245.28],[0,0,1,0],[-1,0,-1,0],[0,9E9,9E9,9E9,9E9,9E9]];
 CONST robtarget Path_10112:=[[868.21,-168.83,245.28],[0,0,1,0],[-1,0,-1,0],[0,9E9,9E9,9E9,9E9,9E9]];
 CONST robtarget Path_10113:=[[905.44,-126.36,245.28],[0,0,1,0],[-1,0,-1,0],[0,9E9,9E9,9E9,9E9,9E9]];
 CONST robtarget Path_10114:=[[942.67,-83.88,245.28],[0,0,1,0],[-1,0,-1,0],[0,9E9,9E9,9E9,9E9,9E9]];
 CONST robtarget Path_10115:=[[979.9,-41.41,245.28],[0,0,1,0],[-1,0,-1,0],[0,9E9,9E9,9E9,9E9,9E9]];
 CONST robtarget Path_10116:=[[1017.13,1.07,245.28],[0,0,1,0],[0,0,0,0],[0,9E9,9E9,9E9,9E9,9E9]];
 CONST robtarget Path_10117:=[[987.29,-40.43,245.28],[0,0,1,0],[-1,0,-1,0],[0,9E9,9E9,9E9,9E9,9E9]];
 CONST robtarget Path_10118:=[[954.09,-86.13,245.28],[0,0,1,0],[-1,0,-1,0],[0,9E9,9E9,9E9,9E9,9E9]];
 CONST robtarget Path_10119:=[[920.89,-131.82,245.28],[0,0,1,0],[-1,0,-1,0],[0,9E9,9E9,9E9,9E9,9E9]];
 CONST robtarget Path_10120:=[[887.69,-177.52,245.28],[0,0,1,0],[-1,0,-1,0],[0,9E9,9E9,9E9,9E9,9E9]];
 CONST robtarget Path_10121:=[[842.23,-145.79,245.28],[0,0,1,0],[-1,0,-1,0],[0,9E9,9E9,9E9,9E9,9E9]];
 CONST robtarget Path_10122:=[[822.58,-113.78,245.28],[0,0,1,0],[-1,0,-1,0],[0,9E9,9E9,9E9,9E9,9E9]];
 CONST robtarget Path_10123:=[[871.11,-84.89,245.28],[0,0,1,0],[-1,0,-1,0],[0,9E9,9E9,9E9,9E9,9E9]];
 CONST robtarget Path_10124:=[[919.64,-56,245.28],[0,0,1,0],[-1,0,-1,0],[0,9E9,9E9,9E9,9E9,9E9]];
 CONST robtarget Path_10125:=[[968.18,-27.11,245.28],[0,0,1,0],[-1,0,-1,0],[0,9E9,9E9,9E9,9E9,9E9]];
 CONST robtarget Path_10126:=[[1016.71,1.78,245.28],[0,0,1,0],[0,0,0,0],[0,9E9,9E9,9E9,9E9,9E9]];
 CONST robtarget Path_10127:=[[975.28,-28.61,245.28],[0,0,1,0],[-1,0,-1,0],[0,9E9,9E9,9E9,9E9,9E9]];
 CONST robtarget Path_10128:=[[929.59,-61.81,245.28],[0,0,1,0],[-1,0,-1,0],[0,9E9,9E9,9E9,9E9,9E9]];
 CONST robtarget Path_10129:=[[883.89,-95.01,245.28],[0,0,1,0],[-1,0,-1,0],[0,9E9,9E9,9E9,9E9,9E9]];
 CONST robtarget Path_10130:=[[838.2,-128.21,245.28],[0,0,1,0],[-1,0,-1,0],[0,9E9,9E9,9E9,9E9,9E9]];
 CONST robtarget Path_10131:=[[804.79,-83.8,245.28],[0,0,1,0],[-1,0,-1,0],[0,9E9,9E9,9E9,9E9,9E9]];
 CONST robtarget Path_10132:=[[796.2,-47.36,245.28],[0,0,1,0],[-1,0,-1,0],[0,9E9,9E9,9E9,9E9,9E9]];
 CONST robtarget Path_10133:=[[851.29,-34.88,245.28],[0,0,1,0],[-1,0,-1,0],[0,9E9,9E9,9E9,9E9,9E9]];
 CONST robtarget Path_10134:=[[906.37,-22.41,245.28],[0,0,1,0],[-1,0,-1,0],[0,9E9,9E9,9E9,9E9,9E9]];
 CONST robtarget Path_10135:=[[961.46,-9.93,245.28],[0,0,1,0],[-1,0,-1,0],[0,9E9,9E9,9E9,9E9,9E9]];
 CONST robtarget Path_10136:=[[1016.54,2.55,245.28],[0,0,1,0],[0,0,0,0],[0,9E9,9E9,9E9,9E9,9E9]];
 CONST robtarget Path_10137:=[[967.5,-13.62,245.28],[0,0,1,0],[-1,0,-1,0],[0,9E9,9E9,9E9,9E9,9E9]];
 CONST robtarget Path_10138:=[[913.78,-31.07,245.28],[0,0,1,0],[-1,0,-1,0],[0,9E9,9E9,9E9,9E9,9E9]];
 CONST robtarget Path_10139:=[[860.06,-48.52,245.28],[0,0,1,0],[-1,0,-1,0],[0,9E9,9E9,9E9,9E9,9E9]];
 CONST robtarget Path_10140:=[[806.34,-65.98,245.28],[0,0,1,0],[-1,0,-1,0],[0,9E9,9E9,9E9,9E9,9E9]];
 CONST robtarget Path_10141:=[[788.38,-13.26,245.28],[0,0,1,0],[-1,0,-1,0],[0,9E9,9E9,9E9,9E9,9E9]];
 CONST robtarget Path_10142:=[[791.64,23.91,245.28],[0,0,1,0],[0,0,0,0],[0,9E9,9E9,9E9,9E9,9E9]];
 CONST robtarget Path_10143:=[[847.89,18.76,245.28],[0,0,1,0],[0,0,0,0],[0,9E9,9E9,9E9,9E9,9E9]];
 CONST robtarget Path_10144:=[[904.13,13.61,245.28],[0,0,1,0],[0,0,0,0],[0,9E9,9E9,9E9,9E9,9E9]];
 CONST robtarget Path_10145:=[[960.38,8.45,245.28],[0,0,1,0],[0,0,0,0],[0,9E9,9E9,9E9,9E9,9E9]];
 CONST robtarget Path_10146:=[[1016.62,3.3,245.28],[0,0,1,0],[0,0,0,0],[0,9E9,9E9,9E9,9E9,9E9]];
 CONST robtarget Path_10147:=[[964.72,3.09,245.28],[0,0,1,0],[0,0,0,0],[0,9E9,9E9,9E9,9E9,9E9]];
 CONST robtarget Path_10148:=[[908.24,3.09,245.28],[0,0,1,0],[0,0,0,0],[0,9E9,9E9,9E9,9E9,9E9]];
 CONST robtarget Path_10149:=[[851.76,3.09,245.28],[0,0,1,0],[0,0,0,0],[0,9E9,9E9,9E9,9E9,9E9]];
 CONST robtarget Path_10150:=[[795.27,3.09,245.28],[0,0,1,0],[0,0,0,0],[0,9E9,9E9,9E9,9E9,9E9]];
 CONST robtarget Path_10151:=[[794.62,58.91,245.28],[0,0,1,0],[0,0,0,0],[0,9E9,9E9,9E9,9E9,9E9]];
 CONST robtarget Path_10152:=[[809.32,93.07,245.28],[0,0,1,0],[0,0,0,0],[0,9E9,9E9,9E9,9E9,9E9]];
 CONST robtarget Path_10153:=[[861.22,70.79,245.28],[0,0,1,0],[0,0,0,0],[0,9E9,9E9,9E9,9E9,9E9]];
 CONST robtarget Path_10154:=[[913.12,48.51,245.28],[0,0,1,0],[0,0,0,0],[0,9E9,9E9,9E9,9E9,9E9]];
 CONST robtarget Path_10155:=[[965.02,26.22,245.28],[0,0,1,0],[0,0,0,0],[0,9E9,9E9,9E9,9E9,9E9]];
 CONST robtarget Path_10156:=[[1016.92,3.94,245.28],[0,0,1,0],[0,0,0,0],[0,9E9,9E9,9E9,9E9,9E9]];
 CONST robtarget Path_10157:=[[967.24,19.87,245.28],[0,0,1,0],[0,0,0,0],[0,9E9,9E9,9E9,9E9,9E9]];
 CONST robtarget Path_10158:=[[913.53,37.33,245.28],[0,0,1,0],[0,0,0,0],[0,9E9,9E9,9E9,9E9,9E9]];
 CONST robtarget Path_10159:=[[859.81,54.78,245.28],[0,0,1,0],[0,0,0,0],[0,9E9,9E9,9E9,9E9,9E9]];
 CONST robtarget Path_10160:=[[806.09,72.23,245.28],[0,0,1,0],[0,0,0,0],[0,9E9,9E9,9E9,9E9,9E9]];
 CONST robtarget Path_10161:=[[822.88,125.61,245.28],[0,0,1,0],[0,0,0,0],[0,9E9,9E9,9E9,9E9,9E9]];
 CONST robtarget Path_10162:=[[847.49,153.35,245.28],[0,0,1,0],[0,0,0,0],[0,9E9,9E9,9E9,9E9,9E9]];
 CONST robtarget Path_10163:=[[889.96,116.12,245.28],[0,0,1,0],[0,0,0,0],[0,9E9,9E9,9E9,9E9,9E9]];
 CONST robtarget Path_10164:=[[932.43,78.89,245.28],[0,0,1,0],[0,0,0,0],[0,9E9,9E9,9E9,9E9,9E9]];
 CONST robtarget Path_10165:=[[974.91,41.66,245.28],[0,0,1,0],[0,0,0,0],[0,9E9,9E9,9E9,9E9,9E9]];
 CONST robtarget Path_10166:=[[1017.38,4.42,245.28],[0,0,1,0],[0,0,0,0],[0,9E9,9E9,9E9,9E9,9E9]];
 CONST robtarget Path_10167:=[[974.85,35.09,245.28],[0,0,1,0],[0,0,0,0],[0,9E9,9E9,9E9,9E9,9E9]];
 CONST robtarget Path_10168:=[[929.16,68.29,245.28],[0,0,1,0],[0,0,0,0],[0,9E9,9E9,9E9,9E9,9E9]];
 CONST robtarget Path_10169:=[[883.47,101.49,245.28],[0,0,1,0],[0,0,0,0],[0,9E9,9E9,9E9,9E9,9E9]];
 CONST robtarget Path_10170:=[[837.77,134.69,245.28],[0,0,1,0],[0,0,0,0],[0,9E9,9E9,9E9,9E9,9E9]];
 CONST robtarget Path_10171:=[[870.42,180.3,245.28],[0,0,1,0],[0,0,0,0],[0,9E9,9E9,9E9,9E9,9E9]];
 CONST robtarget Path_10172:=[[902.38,198.85,245.28],[0,0,1,0],[0,0,0,0],[0,9E9,9E9,9E9,9E9,9E9]];
 CONST robtarget Path_10173:=[[931.27,150.32,245.28],[0,0,1,0],[0,0,0,0],[0,9E9,9E9,9E9,9E9,9E9]];
 CONST robtarget Path_10174:=[[960.16,101.78,245.28],[0,0,1,0],[0,0,0,0],[0,9E9,9E9,9E9,9E9,9E9]];
 CONST robtarget Path_10175:=[[989.05,53.25,245.28],[0,0,1,0],[0,0,0,0],[0,9E9,9E9,9E9,9E9,9E9]];
 CONST robtarget Path_10176:=[[1017.94,4.72,245.28],[0,0,1,0],[0,0,0,0],[0,9E9,9E9,9E9,9E9,9E9]];
 CONST robtarget Path_10177:=[[986.82,47.25,245.28],[0,0,1,0],[0,0,0,0],[0,9E9,9E9,9E9,9E9,9E9]];
 CONST robtarget Path_10178:=[[953.62,92.94,245.28],[0,0,1,0],[0,0,0,0],[0,9E9,9E9,9E9,9E9,9E9]];
 CONST robtarget Path_10179:=[[920.43,138.64,245.28],[0,0,1,0],[0,0,0,0],[0,9E9,9E9,9E9,9E9,9E9]];
 CONST robtarget Path_10180:=[[887.23,184.33,245.28],[0,0,1,0],[0,0,0,0],[0,9E9,9E9,9E9,9E9,9E9]];
 CONST robtarget Path_10181:=[[932.55,217.59,245.28],[0,0,1,0],[0,0,0,0],[0,9E9,9E9,9E9,9E9,9E9]];
 CONST robtarget Path_10182:=[[968.6,225.15,245.28],[0,0,1,0],[0,0,0,0],[0,9E9,9E9,9E9,9E9,9E9]];
 CONST robtarget Path_10183:=[[981.08,170.07,245.28],[0,0,1,0],[0,0,0,0],[0,9E9,9E9,9E9,9E9,9E9]];
 CONST robtarget Path_10184:=[[993.56,114.98,245.28],[0,0,1,0],[0,0,0,0],[0,9E9,9E9,9E9,9E9,9E9]];
 CONST robtarget Path_10185:=[[1006.04,59.89,245.28],[0,0,1,0],[0,0,0,0],[0,9E9,9E9,9E9,9E9,9E9]];
 CONST robtarget Path_10186:=[[1018.52,4.81,245.28],[0,0,1,0],[0,0,0,0],[0,9E9,9E9,9E9,9E9,9E9]];
 CONST robtarget Path_10187:=[[1002,55.13,245.28],[0,0,1,0],[0,0,0,0],[0,9E9,9E9,9E9,9E9,9E9]];
 CONST robtarget Path_10188:=[[984.54,108.84,245.28],[0,0,1,0],[0,0,0,0],[0,9E9,9E9,9E9,9E9,9E9]];
 CONST robtarget Path_10189:=[[967.09,162.56,245.28],[0,0,1,0],[0,0,0,0],[0,9E9,9E9,9E9,9E9,9E9]];
 CONST robtarget Path_10190:=[[949.64,216.28,245.28],[0,0,1,0],[0,0,0,0],[0,9E9,9E9,9E9,9E9,9E9]];
 CONST robtarget Path_10191:=[[1003.19,233.81,245.28],[0,0,1,0],[0,0,0,0],[0,9E9,9E9,9E9,9E9,9E9]];
 CONST robtarget Path_10192:=[[1039.67,229.7,245.28],[0,0,1,0],[0,0,0,0],[0,9E9,9E9,9E9,9E9,9E9]];
 CONST robtarget Path_10193:=[[1034.52,173.45,245.28],[0,0,1,0],[0,0,0,0],[0,9E9,9E9,9E9,9E9,9E9]];
 CONST robtarget Path_10194:=[[1029.36,117.21,245.28],[0,0,1,0],[0,0,0,0],[0,9E9,9E9,9E9,9E9,9E9]];
 CONST robtarget Path_10195:=[[1024.21,60.96,245.28],[0,0,1,0],[0,0,0,0],[0,9E9,9E9,9E9,9E9,9E9]];
 CONST robtarget Path_10196:=[[1019.06,4.71,245.28],[0,0,1,0],[0,0,0,0],[0,9E9,9E9,9E9,9E9,9E9]];
 CONST robtarget Path_10197:=[[1018.91,57.94,245.28],[0,0,1,0],[0,0,0,0],[0,9E9,9E9,9E9,9E9,9E9]];
 CONST robtarget Path_10198:=[[1018.91,114.42,245.28],[0,0,1,0],[0,0,0,0],[0,9E9,9E9,9E9,9E9,9E9]];
 CONST robtarget Path_10199:=[[1018.91,170.9,245.28],[0,0,1,0],[0,0,0,0],[0,9E9,9E9,9E9,9E9,9E9]];


! ==============PROCEDURES=============
 PROC Main()
  ConfJ \Off;
  ConfL \Off;
  MoveJ Path_100,v100,z1,robodraw\WObj:=WObj0;
  MoveL Path_101,v100,z1,robodraw\WObj:=WObj0;
  MoveL Path_102,v100,z1,robodraw\WObj:=WObj0;
  MoveL Path_103,v100,z1,robodraw\WObj:=WObj0;
  MoveL Path_104,v100,z1,robodraw\WObj:=WObj0;
  MoveL Path_105,v100,z1,robodraw\WObj:=WObj0;
  MoveL Path_106,v100,z1,robodraw\WObj:=WObj0;
  MoveL Path_107,v100,z1,robodraw\WObj:=WObj0;
  MoveL Path_108,v100,z1,robodraw\WObj:=WObj0;
  MoveL Path_109,v100,z1,robodraw\WObj:=WObj0;
  MoveL Path_1010,v100,z1,robodraw\WObj:=WObj0;
  MoveL Path_1011,v100,z1,robodraw\WObj:=WObj0;
  MoveL Path_1012,v100,z1,robodraw\WObj:=WObj0;
  MoveL Path_1013,v100,z1,robodraw\WObj:=WObj0;
  MoveL Path_1014,v100,z1,robodraw\WObj:=WObj0;
  MoveL Path_1015,v100,z1,robodraw\WObj:=WObj0;
  MoveL Path_1016,v100,z1,robodraw\WObj:=WObj0;
  MoveL Path_1017,v100,z1,robodraw\WObj:=WObj0;
  MoveL Path_1018,v100,z1,robodraw\WObj:=WObj0;
  MoveL Path_1019,v100,z1,robodraw\WObj:=WObj0;
  MoveL Path_1020,v100,z1,robodraw\WObj:=WObj0;
  MoveL Path_1021,v100,z1,robodraw\WObj:=WObj0;
  MoveL Path_1022,v100,z1,robodraw\WObj:=WObj0;
  MoveL Path_1023,v100,z1,robodraw\WObj:=WObj0;
  MoveL Path_1024,v100,z1,robodraw\WObj:=WObj0;
  MoveL Path_1025,v100,z1,robodraw\WObj:=WObj0;
  MoveL Path_1026,v100,z1,robodraw\WObj:=WObj0;
  MoveL Path_1027,v100,z1,robodraw\WObj:=WObj0;
  MoveL Path_1028,v100,z1,robodraw\WObj:=WObj0;
  MoveL Path_1029,v100,z1,robodraw\WObj:=WObj0;
  MoveL Path_1030,v100,z1,robodraw\WObj:=WObj0;
  MoveL Path_1031,v100,z1,robodraw\WObj:=WObj0;
  MoveL Path_1032,v100,z1,robodraw\WObj:=WObj0;
  MoveL Path_1033,v100,z1,robodraw\WObj:=WObj0;
  MoveL Path_1034,v100,z1,robodraw\WObj:=WObj0;
  MoveL Path_1035,v100,z1,robodraw\WObj:=WObj0;
  MoveL Path_1036,v100,z1,robodraw\WObj:=WObj0;
  MoveL Path_1037,v100,z1,robodraw\WObj:=WObj0;
  MoveL Path_1038,v100,z1,robodraw\WObj:=WObj0;
  MoveL Path_1039,v100,z1,robodraw\WObj:=WObj0;
  MoveL Path_1040,v100,z1,robodraw\WObj:=WObj0;
  MoveL Path_1041,v100,z1,robodraw\WObj:=WObj0;
  MoveL Path_1042,v100,z1,robodraw\WObj:=WObj0;
  MoveL Path_1043,v100,z1,robodraw\WObj:=WObj0;
  MoveL Path_1044,v100,z1,robodraw\WObj:=WObj0;
  MoveL Path_1045,v100,z1,robodraw\WObj:=WObj0;
  MoveL Path_1046,v100,z1,robodraw\WObj:=WObj0;
  MoveL Path_1047,v100,z1,robodraw\WObj:=WObj0;
  MoveL Path_1048,v100,z1,robodraw\WObj:=WObj0;
  MoveL Path_1049,v100,z1,robodraw\WObj:=WObj0;
  MoveL Path_1050,v100,z1,robodraw\WObj:=WObj0;
  MoveL Path_1051,v100,z1,robodraw\WObj:=WObj0;
  MoveL Path_1052,v100,z1,robodraw\WObj:=WObj0;
  MoveL Path_1053,v100,z1,robodraw\WObj:=WObj0;
  MoveL Path_1054,v100,z1,robodraw\WObj:=WObj0;
  MoveL Path_1055,v100,z1,robodraw\WObj:=WObj0;
  MoveL Path_1056,v100,z1,robodraw\WObj:=WObj0;
  MoveL Path_1057,v100,z1,robodraw\WObj:=WObj0;
  MoveL Path_1058,v100,z1,robodraw\WObj:=WObj0;
  MoveL Path_1059,v100,z1,robodraw\WObj:=WObj0;
  MoveL Path_1060,v100,z1,robodraw\WObj:=WObj0;
  MoveL Path_1061,v100,z1,robodraw\WObj:=WObj0;
  MoveL Path_1062,v100,z1,robodraw\WObj:=WObj0;
  MoveL Path_1063,v100,z1,robodraw\WObj:=WObj0;
  MoveL Path_1064,v100,z1,robodraw\WObj:=WObj0;
  MoveL Path_1065,v100,z1,robodraw\WObj:=WObj0;
  MoveL Path_1066,v100,z1,robodraw\WObj:=WObj0;
  MoveL Path_1067,v100,z1,robodraw\WObj:=WObj0;
  MoveL Path_1068,v100,z1,robodraw\WObj:=WObj0;
  MoveL Path_1069,v100,z1,robodraw\WObj:=WObj0;
  MoveL Path_1070,v100,z1,robodraw\WObj:=WObj0;
  MoveL Path_1071,v100,z1,robodraw\WObj:=WObj0;
  MoveL Path_1072,v100,z1,robodraw\WObj:=WObj0;
  MoveL Path_1073,v100,z1,robodraw\WObj:=WObj0;
  MoveL Path_1074,v100,z1,robodraw\WObj:=WObj0;
  MoveL Path_1075,v100,z1,robodraw\WObj:=WObj0;
  MoveL Path_1076,v100,z1,robodraw\WObj:=WObj0;
  MoveL Path_1077,v100,z1,robodraw\WObj:=WObj0;
  MoveL Path_1078,v100,z1,robodraw\WObj:=WObj0;
  MoveL Path_1079,v100,z1,robodraw\WObj:=WObj0;
  MoveL Path_1080,v100,z1,robodraw\WObj:=WObj0;
  MoveL Path_1081,v100,z1,robodraw\WObj:=WObj0;
  MoveL Path_1082,v100,z1,robodraw\WObj:=WObj0;
  MoveL Path_1083,v100,z1,robodraw\WObj:=WObj0;
  MoveL Path_1084,v100,z1,robodraw\WObj:=WObj0;
  MoveL Path_1085,v100,z1,robodraw\WObj:=WObj0;
  MoveL Path_1086,v100,z1,robodraw\WObj:=WObj0;
  MoveL Path_1087,v100,z1,robodraw\WObj:=WObj0;
  MoveL Path_1088,v100,z1,robodraw\WObj:=WObj0;
  MoveL Path_1089,v100,z1,robodraw\WObj:=WObj0;
  MoveL Path_1090,v100,z1,robodraw\WObj:=WObj0;
  MoveL Path_1091,v100,z1,robodraw\WObj:=WObj0;
  MoveL Path_1092,v100,z1,robodraw\WObj:=WObj0;
  MoveL Path_1093,v100,z1,robodraw\WObj:=WObj0;
  MoveL Path_1094,v100,z1,robodraw\WObj:=WObj0;
  MoveL Path_1095,v100,z1,robodraw\WObj:=WObj0;
  MoveL Path_1096,v100,z1,robodraw\WObj:=WObj0;
  MoveL Path_1097,v100,z1,robodraw\WObj:=WObj0;
  MoveL Path_1098,v100,z1,robodraw\WObj:=WObj0;
  MoveL Path_1099,v100,z1,robodraw\WObj:=WObj0;
  MoveL Path_10100,v100,z1,robodraw\WObj:=WObj0;
  MoveL Path_10101,v100,z1,robodraw\WObj:=WObj0;
  MoveL Path_10102,v100,z1,robodraw\WObj:=WObj0;
  MoveL Path_10103,v100,z1,robodraw\WObj:=WObj0;
  MoveL Path_10104,v100,z1,robodraw\WObj:=WObj0;
  MoveL Path_10105,v100,z1,robodraw\WObj:=WObj0;
  MoveL Path_10106,v100,z1,robodraw\WObj:=WObj0;
  MoveL Path_10107,v100,z1,robodraw\WObj:=WObj0;
  MoveL Path_10108,v100,z1,robodraw\WObj:=WObj0;
  MoveL Path_10109,v100,z1,robodraw\WObj:=WObj0;
  MoveL Path_10110,v100,z1,robodraw\WObj:=WObj0;
  MoveL Path_10111,v100,z1,robodraw\WObj:=WObj0;
  MoveL Path_10112,v100,z1,robodraw\WObj:=WObj0;
  MoveL Path_10113,v100,z1,robodraw\WObj:=WObj0;
  MoveL Path_10114,v100,z1,robodraw\WObj:=WObj0;
  MoveL Path_10115,v100,z1,robodraw\WObj:=WObj0;
  MoveL Path_10116,v100,z1,robodraw\WObj:=WObj0;
  MoveL Path_10117,v100,z1,robodraw\WObj:=WObj0;
  MoveL Path_10118,v100,z1,robodraw\WObj:=WObj0;
  MoveL Path_10119,v100,z1,robodraw\WObj:=WObj0;
  MoveL Path_10120,v100,z1,robodraw\WObj:=WObj0;
  MoveL Path_10121,v100,z1,robodraw\WObj:=WObj0;
  MoveL Path_10122,v100,z1,robodraw\WObj:=WObj0;
  MoveL Path_10123,v100,z1,robodraw\WObj:=WObj0;
  MoveL Path_10124,v100,z1,robodraw\WObj:=WObj0;
  MoveL Path_10125,v100,z1,robodraw\WObj:=WObj0;
  MoveL Path_10126,v100,z1,robodraw\WObj:=WObj0;
  MoveL Path_10127,v100,z1,robodraw\WObj:=WObj0;
  MoveL Path_10128,v100,z1,robodraw\WObj:=WObj0;
  MoveL Path_10129,v100,z1,robodraw\WObj:=WObj0;
  MoveL Path_10130,v100,z1,robodraw\WObj:=WObj0;
  MoveL Path_10131,v100,z1,robodraw\WObj:=WObj0;
  MoveL Path_10132,v100,z1,robodraw\WObj:=WObj0;
  MoveL Path_10133,v100,z1,robodraw\WObj:=WObj0;
  MoveL Path_10134,v100,z1,robodraw\WObj:=WObj0;
  MoveL Path_10135,v100,z1,robodraw\WObj:=WObj0;
  MoveL Path_10136,v100,z1,robodraw\WObj:=WObj0;
  MoveL Path_10137,v100,z1,robodraw\WObj:=WObj0;
  MoveL Path_10138,v100,z1,robodraw\WObj:=WObj0;
  MoveL Path_10139,v100,z1,robodraw\WObj:=WObj0;
  MoveL Path_10140,v100,z1,robodraw\WObj:=WObj0;
  MoveL Path_10141,v100,z1,robodraw\WObj:=WObj0;
  MoveL Path_10142,v100,z1,robodraw\WObj:=WObj0;
  MoveL Path_10143,v100,z1,robodraw\WObj:=WObj0;
  MoveL Path_10144,v100,z1,robodraw\WObj:=WObj0;
  MoveL Path_10145,v100,z1,robodraw\WObj:=WObj0;
  MoveL Path_10146,v100,z1,robodraw\WObj:=WObj0;
  MoveL Path_10147,v100,z1,robodraw\WObj:=WObj0;
  MoveL Path_10148,v100,z1,robodraw\WObj:=WObj0;
  MoveL Path_10149,v100,z1,robodraw\WObj:=WObj0;
  MoveL Path_10150,v100,z1,robodraw\WObj:=WObj0;
  MoveL Path_10151,v100,z1,robodraw\WObj:=WObj0;
  MoveL Path_10152,v100,z1,robodraw\WObj:=WObj0;
  MoveL Path_10153,v100,z1,robodraw\WObj:=WObj0;
  MoveL Path_10154,v100,z1,robodraw\WObj:=WObj0;
  MoveL Path_10155,v100,z1,robodraw\WObj:=WObj0;
  MoveL Path_10156,v100,z1,robodraw\WObj:=WObj0;
  MoveL Path_10157,v100,z1,robodraw\WObj:=WObj0;
  MoveL Path_10158,v100,z1,robodraw\WObj:=WObj0;
  MoveL Path_10159,v100,z1,robodraw\WObj:=WObj0;
  MoveL Path_10160,v100,z1,robodraw\WObj:=WObj0;
  MoveL Path_10161,v100,z1,robodraw\WObj:=WObj0;
  MoveL Path_10162,v100,z1,robodraw\WObj:=WObj0;
  MoveL Path_10163,v100,z1,robodraw\WObj:=WObj0;
  MoveL Path_10164,v100,z1,robodraw\WObj:=WObj0;
  MoveL Path_10165,v100,z1,robodraw\WObj:=WObj0;
  MoveL Path_10166,v100,z1,robodraw\WObj:=WObj0;
  MoveL Path_10167,v100,z1,robodraw\WObj:=WObj0;
  MoveL Path_10168,v100,z1,robodraw\WObj:=WObj0;
  MoveL Path_10169,v100,z1,robodraw\WObj:=WObj0;
  MoveL Path_10170,v100,z1,robodraw\WObj:=WObj0;
  MoveL Path_10171,v100,z1,robodraw\WObj:=WObj0;
  MoveL Path_10172,v100,z1,robodraw\WObj:=WObj0;
  MoveL Path_10173,v100,z1,robodraw\WObj:=WObj0;
  MoveL Path_10174,v100,z1,robodraw\WObj:=WObj0;
  MoveL Path_10175,v100,z1,robodraw\WObj:=WObj0;
  MoveL Path_10176,v100,z1,robodraw\WObj:=WObj0;
  MoveL Path_10177,v100,z1,robodraw\WObj:=WObj0;
  MoveL Path_10178,v100,z1,robodraw\WObj:=WObj0;
  MoveL Path_10179,v100,z1,robodraw\WObj:=WObj0;
  MoveL Path_10180,v100,z1,robodraw\WObj:=WObj0;
  MoveL Path_10181,v100,z1,robodraw\WObj:=WObj0;
  MoveL Path_10182,v100,z1,robodraw\WObj:=WObj0;
  MoveL Path_10183,v100,z1,robodraw\WObj:=WObj0;
  MoveL Path_10184,v100,z1,robodraw\WObj:=WObj0;
  MoveL Path_10185,v100,z1,robodraw\WObj:=WObj0;
  MoveL Path_10186,v100,z1,robodraw\WObj:=WObj0;
  MoveL Path_10187,v100,z1,robodraw\WObj:=WObj0;
  MoveL Path_10188,v100,z1,robodraw\WObj:=WObj0;
  MoveL Path_10189,v100,z1,robodraw\WObj:=WObj0;
  MoveL Path_10190,v100,z1,robodraw\WObj:=WObj0;
  MoveL Path_10191,v100,z1,robodraw\WObj:=WObj0;
  MoveL Path_10192,v100,z1,robodraw\WObj:=WObj0;
  MoveL Path_10193,v100,z1,robodraw\WObj:=WObj0;
  MoveL Path_10194,v100,z1,robodraw\WObj:=WObj0;
  MoveL Path_10195,v100,z1,robodraw\WObj:=WObj0;
  MoveL Path_10196,v100,z1,robodraw\WObj:=WObj0;
  MoveL Path_10197,v100,z1,robodraw\WObj:=WObj0;
  MoveL Path_10198,v100,z1,robodraw\WObj:=WObj0;
  MoveL Path_10199,v100,z1,robodraw\WObj:=WObj0;
 ENDPROC
ENDMODULE

